X: 2458
T:Miss Patterson's Slipper
T:Crowley's Reel
T:Master Crowley's
R:reel
H:See also #685
D:The Gathering (Matt Molloy)
D:Paddy Glackin: Ceol ar an bhFidil le Paddy Glackin.
Z:id:hn-reel-179
M:C|
K:Edor
B,E~E2 B,EFE|EDB,D A,DFD|B,E~E2 B,EFE|FAdA FEED|
B,E~E2 B,EFE|EDB,D A,DFD|B,E~E2 B,EFE|1 FAdA FEED:|2 FAdA FEEA||
|:Bbba fgeg|fd~d2 adfd|Bbba fgfe|dBAF FEEA|
Bbba fgeg|fd~d2 adfd|EFGA ~B3d|1 AFDE FEEA:|2 AFDE FEED||
